Origami/32x32/apps/seamonkey.svg

<svg width="32" height="32" version="1.1" viewBox="0 0 32 32" xmlns="http://www.w3.org/2000/svg">
 <path d="M 16.047939,11.252157 C 8.3159521,11.252157 2,8.2680135 2,16 2,23.731986 8.2680135,30 16,30 23.731986,30 30,23.731986 30,16 30,8.2680135 23.779925,11.252157 16.047939,11.252157 Z" style="fill:#4882e3"/>
 <path d="m16 2a14 14 0 0 0 -1.357422 0.0683594c-0.147741 0.0144621-0.291058 0.0434624-0.4375 0.0625a14 14 0 0 0 -0.892578 0.1347656c-0.194594 0.0382061-0.384425 0.0905138-0.576172 0.1367188a14 14 0 0 0 -0.701172 0.1796874c-0.221365 0.0656724-0.4375 0.1425401-0.654297 0.21875a14 14 0 0 0 -0.589843 0.2167969c-0.237097 0.0955688-0.468595 0.2005796-0.699219 0.3085938a14 14 0 0 0 -0.4472658 0.2148437c-0.2679955 0.1373328-0.5312302 0.2836528-0.7890624 0.4375a14 14 0 0 0 -0.2949219 0.1816406c-0.2713408 0.1711398-0.5383454 0.3500937-0.796875 0.5390626a14 14 0 0 0 -0.234375 0.1777343c-0.2732292 0.208646-0.5417617 0.4204639-0.7988281 0.6484375a14 14 0 0 0 -0.0898438 0.0839844c-1.5190087 1.3710241-2.7425066 3.0713827-3.546875 5.001953-0.1622753 0.389478-0.3080826 0.788161-0.4355469 1.195313-0.0011765 0.003758-7.797e-4 0.007959-0.0019531 0.011718-0.1275614 0.408677-0.2375653 0.825273-0.328125 1.25-0.0908245 0.42597-0.1631936 0.86041-0.2148438 1.300782 1.4092657-0.644582 2.7149534-0.929796 3.9453126-0.9375h0.0019531c1.1489862-0.0072 2.2369808 0.210082 3.3007812 0.529297 3.5841559 0.2156 6.7538499 1.736899 10.519531 1.929687 2.503368-0.110702 7.569383-0.009928 10.083985-0.576172a14 14 0 0 0 -0.152344 -1.494141c-0.112348-0.163243-0.163298-0.287711-0.048828-0.318359-1.14e-4 -6.3e-4 1.14e-4 -0.001323 0-0.001953-0.065762-0.362362-0.151774-0.717247-0.244141-1.068359a14 14 0 0 0 -0.054687 -0.21875c-0.087266-0.31135-0.189467-0.614533-0.296875-0.916016a14 14 0 0 0 -0.125 -0.341797c-0.106741-0.276567-0.222527-0.54917-0.345703-0.816406a14 14 0 0 0 -0.173828 -0.3593751c-0.134873-0.2718181-0.274379-0.5398205-0.425782-0.8007813a14 14 0 0 0 -0.167968 -0.2714844c-0.165318-0.2704608-0.333125-0.539384-0.515626-0.796875a14 14 0 0 0 -0.132812 -0.1738281c-0.624235-0.8521049-1.340965-1.6272901-2.134766-2.3144531a14 14 0 0 0 -0.230468 -0.2011719c-0.218272-0.1807907-0.444926-0.3502496-0.673828-0.5175781a14 14 0 0 0 -0.376954 -0.2695312c-0.208704-0.1422281-0.422293-0.2772726-0.638672-0.4082032a14 14 0 0 0 -0.517578 -0.296875c-0.19454-0.1066674-0.390009-0.2110904-0.589843-0.3085937a14 14 0 0 0 -0.628907 -0.28125c-0.184784-0.0791438-0.36804-0.1630848-0.55664-0.234375a14 14 0 0 0 -0.763672 -0.2539063c-0.161839-0.0507188-0.320209-0.1093725-0.484375-0.1542968a14 14 0 0 0 -0.007813 -0.0019532 14 14 0 0 0 -1.240234 -0.2773437c-0.142122-0.0251673-0.288193-0.0377652-0.431641-0.0585938a14 14 0 0 0 -0.890625 -0.1074219c-0.368819-0.0295863-0.739812-0.0504684-1.115234-0.0507812z" style="fill:#335a9e"/>
 <path d="m2.0215 16.414a14 14 0 0 0 -0.0215 0.586 14 14 0 0 0 14 14 14 14 0 0 0 14 -14 14 14 0 0 0 -0.021 -0.414 14 14 0 0 1 -13.979 13.414 14 14 0 0 1 -13.978 -13.586z" opacity=".2"/>
 <path d="m29.763672 13.902c-1.988511 0.532407-6.460098 1.837268-9.882813 1.988625-6.090162-0.311792-10.61767-4.306649-17.86914-0.414625-0.0051584 0.108024-0.0090649 0.415885-0.0117188 0.524 0.00503 0.62088 0.051354 1.240739 0.1386719 1.855469 0.6517048-0.20096 1.8208095-0.297741 3.921875 0.205078 3.9839311 0.953418 9.6195481 0.417154 12.820312-0.570313 3.200771-0.987469 6.453379-1.370504 8.326172-1.472656 1.192001-0.06502 2.176112 0.50163 2.759766 0.931641 0.021801-0.31594 0.032875-0.632528 0.033203-0.949219-0.0038-0.838078-0.08294-1.27407-0.236328-2.098z" style="fill:#7767c0"/>
 <path d="m2.0273438 15.234375c-0.016097 0.254911-0.025215 0.510215-0.0273438 0.765625 0.00571 0.725071 0.06775 1.248539 0.1855469 1.964 0.7276893-0.06308 2.0146883 0.16685 4.2753906 0.707875 3.8890615 0.930719 7.5805225-0.557525 10.705078-1.521484 0.191272-0.05901 0.38226-0.106813 0.570312-0.146485-0.0021-5.2e-5 -0.0077 5.3e-5 -0.0098 0-5.356245-1.331837-7.381628-1.571885-15.699184-1.769531zm15.708984 1.769531c0.677114 0.01566 1.436537-0.02311 2.228516-0.08594-0.709289-0.08457-1.454361-0.07738-2.228516 0.08594zm2.228516-0.08594c1.933025 0.230485 3.594008 1.142772 4.816406 1.4375 2.604861 0.628046 4.07709 0.751183 4.892578 0.668534 0.211109-0.960446 0.320436-2.04064 0.326172-3.024-0.0051-0.157673-0.01296-0.315247-0.02344-0.472656-3.147607 0.423947-6.914177 1.14489-10.011718 1.390625z" style="fill:#595afd"/>
 <path d="m6.0585938 14.000376c-1.2303592 0.0077-2.536047 0.724559-3.9453126 1.369141-0.0694946 0.540949-0.1073195 1.085497-0.1132812 1.630859 0.0056 0.295974 0.020577 0.591695 0.044922 0.886719 0.5936441-0.420618 1.5318759-0.94858 2.6660156-0.886719 1.872786 0.102152 6.8090025 3.660968 10.009766 4.648438 3.200757 0.987469 7.152787-2.329788 11.136719-3.283204 2.06557-0.494325 3.362517-0.218982 4.042969 0.154297a14 14 0 0 0 0.0996089 -1.519531 14 14 0 0 0 -0.050781 -1.013672c-0.510484-0.02179-1.306648-0.0046-2.082031 0.253906-1.430128 0.476709-6.060634 1.620911-9.535157 1.525391-4.457556-0.290256-7.941294-3.792887-12.271484-3.765625z" style="opacity:.2"/>
 <path d="m6.0585938 13c-1.2303592 0.0077-2.536047 0.724559-3.9453126 1.369141-0.0694946 0.540949-0.1073195 1.085497-0.1132812 1.630859 0.0056 0.295974 0.0205769 0.591695 0.0449219 0.886719 0.5936441-0.420618 1.5318759-0.94858 2.6660156-0.886719 1.872786 0.102152 6.8090025 3.660968 10.009766 4.648438 3.200757 0.987469 7.152787-2.329788 11.136719-3.283204 2.06557-0.494325 3.362517-0.218982 4.042969 0.154297a14 14 0 0 0 0.099609 -1.519531 14 14 0 0 0 -0.050781 -1.013672c-0.510484-0.021795-1.306648-0.004558-2.082031 0.253906-1.430128 0.476709-6.060634 1.620911-9.535157 1.525391-4.457556-0.290256-7.941294-3.792887-12.271484-3.765625h-0.0019531z" style="fill:#8a72ff"/>
 <path d="m22.116101 6.0003765c-1.485868-0.07368-2.94009 0.7776725-3.805486 1.9691735-4.68e-4 3.65e-4 -9.35e-4 7.317e-4 -0.0014 0.0011-1.032132 1.440749-1.576292 3.435648-2.027638 5.086168-1e-6 3.67e-4 -1e-6 7.33e-4 0 0.0011-0.623995 2.311177-1.677685 4.498561-3.004074 6.49687-2.749384 4.12189-6.322923 7.708882-10.968264 9.519631-0.02954 0.01186-0.056564 0.02921-0.07964 0.05113l-0.186838 0.174051c-0.1764708 0.165806-0.040009 0.460791 0.200609 0.433649 3.257521-0.382709 5.3536967-2.80751 7.75663-4.732873 1.931633-0.189215 4.151686-0.31064 6.019031-0.809183 9.36e-4 -3.61e-4 0.0019-7.28e-4 0.0028-0.0011 2.624338-0.737749 5.470943-1.901478 7.261812-4.113275 1.78519-2.18926 2.084867-5.235967 1.432713-7.875501-0.221758-1.054821-1.131615-2.135956-2.284195-2.3639281-0.03098-0.109012-0.0609-0.216534-0.09145-0.326466 0.249924-0.27383 1.057635-0.56847 1.305563-0.927282 0.275507-0.398728 0.468669-1.1923259 0.327453-1.7389079-0.0076-0.028869-0.02027-0.056156-0.03742-0.080588-0.303913-0.438401-1.319986-0.7628765-1.820823-0.7637685z" style="opacity:.2"/>
 <path d="m22.116101 5c-1.485868-0.07368-2.94009 0.7776725-3.805486 1.9691735-4.68e-4 3.65e-4 -9.35e-4 7.317e-4 -0.0014 0.0011-1.032132 1.440749-1.576292 3.4356485-2.027638 5.0861685-1e-6 3.67e-4 -1e-6 7.33e-4 0 0.0011-0.623995 2.311177-1.677685 4.498561-3.004074 6.49687-2.749384 4.12189-6.322923 7.708882-10.968264 9.519631-0.02954 0.01186-0.056564 0.02921-0.07964 0.05113l-0.186838 0.174051c-0.1764708 0.165806-0.040009 0.460791 0.200609 0.433649 3.257521-0.382709 5.3536967-2.80751 7.75663-4.732873 1.931633-0.189215 4.151686-0.31064 6.019031-0.809183 9.36e-4 -3.61e-4 0.0019-7.28e-4 0.0028-0.0011 2.624338-0.737749 5.470943-1.901478 7.261812-4.113275 1.78519-2.18926 2.084867-5.235967 1.432713-7.875501-0.221758-1.054821-1.131615-2.1359566-2.284195-2.3639286-0.03098-0.109012-0.0609-0.216534-0.09145-0.326466 0.249924-0.27383 1.057635-0.56847 1.305563-0.927282 0.275507-0.398728 0.468669-1.1923259 0.327453-1.7389079-0.0076-0.028869-0.02027-0.056156-0.03742-0.080588-0.303913-0.438401-1.319986-0.7628765-1.820823-0.7637685z" style="fill:#50ddee"/>
 <path d="m16 2a14 14 0 0 0 -14 14 14 14 0 0 0 0.0215 0.414 14 14 0 0 1 13.978 -13.414 14 14 0 0 1 13.979 13.586 14 14 0 0 0 0.021 -0.586 14 14 0 0 0 -14 -14z" fill="#ffffff" style="opacity:.1"/>
</svg>

<svg xmlns="http://www.w3.org/2000/svg" width="32" height="32" version="1.1" viewBox="0 0 32 32">
 <path style="fill:#4882e3" d="M 16.047939,11.252157 C 8.3159521,11.252157 2,8.2680135 2,16 2,23.731986 8.2680135,30 16,30 23.731986,30 30,23.731986 30,16 30,8.2680135 23.779925,11.252157 16.047939,11.252157 Z"/>
 <path style="fill:#335a9e" d="M 16 2 A 14 14 0 0 0 14.642578 2.0683594 C 14.494837 2.0828215 14.35152 2.1118218 14.205078 2.1308594 A 14 14 0 0 0 13.3125 2.265625 C 13.117906 2.3038311 12.928075 2.3561388 12.736328 2.4023438 A 14 14 0 0 0 12.035156 2.5820312 C 11.813791 2.6477036 11.597656 2.7245713 11.380859 2.8007812 A 14 14 0 0 0 10.791016 3.0175781 C 10.553919 3.1131469 10.322421 3.2181577 10.091797 3.3261719 A 14 14 0 0 0 9.6445312 3.5410156 C 9.3765357 3.6783484 9.113301 3.8246684 8.8554688 3.9785156 A 14 14 0 0 0 8.5605469 4.1601562 C 8.2892061 4.331296 8.0222015 4.5102499 7.7636719 4.6992188 A 14 14 0 0 0 7.5292969 4.8769531 C 7.2560677 5.0855991 6.9875352 5.297417 6.7304688 5.5253906 A 14 14 0 0 0 6.640625 5.609375 C 5.1216163 6.9803991 3.8981184 8.6807577 3.09375 10.611328 C 2.9314747 11.000806 2.7856674 11.399489 2.6582031 11.806641 C 2.6570266 11.810399 2.6574234 11.8146 2.65625 11.818359 C 2.5286886 12.227036 2.4186847 12.643632 2.328125 13.068359 C 2.2373005 13.494329 2.1649314 13.928769 2.1132812 14.369141 C 3.5225469 13.724559 4.8282346 13.439345 6.0585938 13.431641 L 6.0605469 13.431641 C 7.2095331 13.424441 8.2975277 13.641723 9.3613281 13.960938 C 12.945484 14.176538 16.115178 15.697837 19.880859 15.890625 C 22.384227 15.779923 27.450242 15.880697 29.964844 15.314453 A 14 14 0 0 0 29.8125 13.820312 C 29.700152 13.657069 29.649202 13.532601 29.763672 13.501953 C 29.763558 13.501323 29.763786 13.50063 29.763672 13.5 C 29.69791 13.137638 29.611898 12.782753 29.519531 12.431641 A 14 14 0 0 0 29.464844 12.212891 C 29.377578 11.901541 29.275377 11.598358 29.167969 11.296875 A 14 14 0 0 0 29.042969 10.955078 C 28.936228 10.678511 28.820442 10.405908 28.697266 10.138672 A 14 14 0 0 0 28.523438 9.7792969 C 28.388565 9.5074788 28.249059 9.2394764 28.097656 8.9785156 A 14 14 0 0 0 27.929688 8.7070312 C 27.76437 8.4365704 27.596563 8.1676472 27.414062 7.9101562 A 14 14 0 0 0 27.28125 7.7363281 C 26.657015 6.8842232 25.940285 6.109038 25.146484 5.421875 A 14 14 0 0 0 24.916016 5.2207031 C 24.697744 5.0399124 24.47109 4.8704535 24.242188 4.703125 A 14 14 0 0 0 23.865234 4.4335938 C 23.65653 4.2913657 23.442941 4.1563212 23.226562 4.0253906 A 14 14 0 0 0 22.708984 3.7285156 C 22.514444 3.6218482 22.318975 3.5174252 22.119141 3.4199219 A 14 14 0 0 0 21.490234 3.1386719 C 21.30545 3.0595281 21.122194 2.9755871 20.933594 2.9042969 A 14 14 0 0 0 20.169922 2.6503906 C 20.008083 2.5996718 19.849713 2.5410181 19.685547 2.4960938 A 14 14 0 0 0 19.677734 2.4941406 A 14 14 0 0 0 18.4375 2.2167969 C 18.295378 2.1916296 18.149307 2.1790317 18.005859 2.1582031 A 14 14 0 0 0 17.115234 2.0507812 C 16.746415 2.0211949 16.375422 2.0003128 16 2 z"/>
 <path opacity=".2" d="m2.0215 16.414a14 14 0 0 0 -0.0215 0.586 14 14 0 0 0 14 14 14 14 0 0 0 14 -14 14 14 0 0 0 -0.021 -0.414 14 14 0 0 1 -13.979 13.414 14 14 0 0 1 -13.978 -13.586z"/>
 <path style="fill:#7767c0" d="m 29.763672,13.902 c -1.988511,0.532407 -6.460098,1.837268 -9.882813,1.988625 C 13.790697,15.578833 9.2631893,11.583976 2.0117188,15.476 2.0065604,15.584024 2.0026539,15.891885 2,16 c 0.00503,0.62088 0.051354,1.240739 0.1386719,1.855469 0.6517048,-0.20096 1.8208095,-0.297741 3.921875,0.205078 3.9839311,0.953418 9.6195481,0.417154 12.8203121,-0.570313 3.200771,-0.987469 6.453379,-1.370504 8.326172,-1.472656 1.192001,-0.06502 2.176112,0.50163 2.759766,0.931641 C 29.988598,16.633279 29.999672,16.316691 30,16 29.9962,15.161922 29.91706,14.72593 29.763672,13.902 Z"/>
 <path style="fill:#595afd" d="M 2.0273438,15.234375 C 2.0112468,15.489286 2.0021288,15.74459 2,16 c 0.00571,0.725071 0.06775,1.248539 0.1855469,1.964 0.7276893,-0.06308 2.0146883,0.16685 4.2753906,0.707875 3.8890615,0.930719 7.5805225,-0.557525 10.7050785,-1.521484 0.191272,-0.05901 0.38226,-0.106813 0.570312,-0.146485 -0.0021,-5.2e-5 -0.0077,5.3e-5 -0.0098,0 C 12.370283,15.672069 10.3449,15.432021 2.0273438,15.234375 Z m 15.7089842,1.769531 c 0.677114,0.01566 1.436537,-0.02311 2.228516,-0.08594 -0.709289,-0.08457 -1.454361,-0.07738 -2.228516,0.08594 z m 2.228516,-0.08594 c 1.933025,0.230485 3.594008,1.142772 4.816406,1.4375 2.604861,0.628046 4.07709,0.751183 4.892578,0.668534 C 29.884937,18.063554 29.994264,16.98336 30,16 c -0.0051,-0.157673 -0.01296,-0.315247 -0.02344,-0.472656 -3.147607,0.423947 -6.914177,1.14489 -10.011718,1.390625 z"/>
 <path style="opacity:0.2" d="m 6.0585938,14.000376 c -1.2303592,0.0077 -2.536047,0.724559 -3.9453126,1.369141 C 2.0437866,15.910466 2.0059617,16.455014 2,17.000376 c 0.0056,0.295974 0.020577,0.591695 0.044922,0.886719 0.5936441,-0.420618 1.5318759,-0.94858 2.6660156,-0.886719 1.872786,0.102152 6.8090025,3.660968 10.0097655,4.648438 3.200757,0.987469 7.152787,-2.329788 11.136719,-3.283204 2.06557,-0.494325 3.362517,-0.218982 4.042969,0.154297 A 14,14 0 0 0 30,17.000376 14,14 0 0 0 29.949219,15.986704 c -0.510484,-0.02179 -1.306648,-0.0046 -2.082031,0.253906 -1.430128,0.476709 -6.060634,1.620911 -9.535157,1.525391 -4.457556,-0.290256 -7.941294,-3.792887 -12.2714841,-3.765625 z"/>
 <path style="fill:#8a72ff" d="M 6.0585938 13 C 4.8282346 13.0077 3.5225468 13.724559 2.1132812 14.369141 C 2.0437866 14.91009 2.0059617 15.454638 2 16 C 2.0056 16.295974 2.0205769 16.591695 2.0449219 16.886719 C 2.638566 16.466101 3.5767978 15.938139 4.7109375 16 C 6.5837235 16.102152 11.51994 19.660968 14.720703 20.648438 C 17.92146 21.635907 21.87349 18.31865 25.857422 17.365234 C 27.922992 16.870909 29.219939 17.146252 29.900391 17.519531 A 14 14 0 0 0 30 16 A 14 14 0 0 0 29.949219 14.986328 C 29.438735 14.964533 28.642571 14.98177 27.867188 15.240234 C 26.43706 15.716943 21.806554 16.861145 18.332031 16.765625 C 13.874475 16.475369 10.390737 12.972738 6.0605469 13 L 6.0585938 13 z"/>
 <path style="opacity:0.2" d="m 22.116101,6.0003765 c -1.485868,-0.07368 -2.94009,0.7776725 -3.805486,1.9691735 -4.68e-4,3.65e-4 -9.35e-4,7.317e-4 -0.0014,0.0011 -1.032132,1.440749 -1.576292,3.435648 -2.027638,5.086168 -10e-7,3.67e-4 -10e-7,7.33e-4 0,0.0011 -0.623995,2.311177 -1.677685,4.498561 -3.004074,6.49687 -2.749384,4.12189 -6.322923,7.708882 -10.968264,9.519631 -0.02954,0.01186 -0.056564,0.02921 -0.07964,0.05113 L 2.042761,29.2996 C 1.8662902,29.465406 2.002752,29.760391 2.24337,29.733249 5.500891,29.35054 7.5970667,26.925739 10,25.000376 c 1.931633,-0.189215 4.151686,-0.31064 6.019031,-0.809183 9.36e-4,-3.61e-4 0.0019,-7.28e-4 0.0028,-0.0011 2.624338,-0.737749 5.470943,-1.901478 7.261812,-4.113275 1.78519,-2.18926 2.084867,-5.235967 1.432713,-7.875501 -0.221758,-1.054821 -1.131615,-2.135956 -2.284195,-2.3639281 -0.03098,-0.109012 -0.0609,-0.216534 -0.09145,-0.326466 0.249924,-0.27383 1.057635,-0.56847 1.305563,-0.927282 C 23.921781,8.1849129 24.114943,7.391315 23.973727,6.844733 23.966127,6.815864 23.953457,6.788577 23.936307,6.764145 23.632394,6.325744 22.616321,6.0012685 22.115484,6.0003765 Z"/>
 <path style="fill:#50ddee" d="m 22.116101,5 c -1.485868,-0.07368 -2.94009,0.7776725 -3.805486,1.9691735 -4.68e-4,3.65e-4 -9.35e-4,7.317e-4 -0.0014,0.0011 -1.032132,1.440749 -1.576292,3.4356485 -2.027638,5.0861685 -10e-7,3.67e-4 -10e-7,7.33e-4 0,0.0011 -0.623995,2.311177 -1.677685,4.498561 -3.004074,6.49687 -2.749384,4.12189 -6.322923,7.708882 -10.968264,9.519631 -0.02954,0.01186 -0.056564,0.02921 -0.07964,0.05113 L 2.042761,28.299224 C 1.8662902,28.46503 2.002752,28.760015 2.24337,28.732873 5.500891,28.350164 7.5970667,25.925363 10,24 c 1.931633,-0.189215 4.151686,-0.31064 6.019031,-0.809183 9.36e-4,-3.61e-4 0.0019,-7.28e-4 0.0028,-0.0011 2.624338,-0.737749 5.470943,-1.901478 7.261812,-4.113275 1.78519,-2.18926 2.084867,-5.235967 1.432713,-7.875501 -0.221758,-1.054821 -1.131615,-2.1359566 -2.284195,-2.3639286 -0.03098,-0.109012 -0.0609,-0.216534 -0.09145,-0.326466 0.249924,-0.27383 1.057635,-0.56847 1.305563,-0.927282 0.275507,-0.398728 0.468669,-1.1923259 0.327453,-1.7389079 -0.0076,-0.028869 -0.02027,-0.056156 -0.03742,-0.080588 C 23.632394,5.3253675 22.616321,5.000892 22.115484,5 Z"/>
 <path fill="#ffffff" style="opacity:0.1" d="m16 2a14 14 0 0 0 -14 14 14 14 0 0 0 0.0215 0.414 14 14 0 0 1 13.978 -13.414 14 14 0 0 1 13.979 13.586 14 14 0 0 0 0.021 -0.586 14 14 0 0 0 -14 -14z"/>
</svg>
